assets/img/braze_icons/cloud-moon.svg

<svg fill="none" height="24" viewBox="0 0 24 24" width="24" xmlns="http://www.w3.org/2000/svg"><g fill="#801ed7"><path clip-rule="evenodd" d="m16.1336 2.40571c.0851-.34068-.0148-.70099-.2631-.94926s-.6087-.34813-.9493-.26307c-2.8264.70563-4.9212 3.26027-4.9212 6.30667 0 .53245.0642 1.05061.1854 1.54683-2.51929.29192-4.62934 1.92122-5.60463 4.15772-2.07025.6119-3.58077 2.5264-3.58077 4.7954 0 2.7614 2.23858 5 5 5h11.5c3.0376 0 5.5-2.4624 5.5-5.5 0-2.0122-1.0806-3.772-2.6931-4.7308 1.2219-.8846 2.1238-2.1838 2.5-3.69102.085-.34069-.0149-.701-.2632-.94927s-.6086-.34812-.9493-.26307c-.3493.08721-.7157.13376-1.0944.13376-2.4853 0-4.5-2.01472-4.5-4.5 0-.3785.0465-.74473.1336-1.09389zm.6072 9.58799c1.4619-.0771 2.74-.8523 3.5053-1.99897-3.3877-.13013-6.1107-2.85289-6.2412-6.24048-1.2089.80709-2.0049 2.18418-2.0049 3.7458 0 .57258.1065 1.11858.3003 1.62053 1.8325.34432 3.4124 1.40272 4.4405 2.87312z" fill-rule="evenodd"/><path d="m6 3c0-.55228-.44772-1-1-1s-1 .44772-1 1v1h-1c-.55228 0-1 .44772-1 1s.44772 1 1 1h1v1c0 .55228.44772 1 1 1s1-.44772 1-1v-1h1c.55228 0 1-.44772 1-1s-.44772-1-1-1h-1z"/></g></svg>

<svg width="24" height="24" viewBox="0 0 24 24" fill="none" xmlns="http://www.w3.org/2000/svg">
<path fill-rule="evenodd" clip-rule="evenodd" d="M16.1336 2.40571C16.2187 2.06503 16.1188 1.70472 15.8705 1.45645C15.6222 1.20818 15.2618 1.10832 14.9212 1.19338C12.0948 1.89901 10 4.45365 10 7.50005C10 8.0325 10.0642 8.55066 10.1854 9.04688C7.66611 9.3388 5.55606 10.9681 4.58077 13.2046C2.51052 13.8165 1 15.731 1 18C1 20.7614 3.23858 23 6 23H17.5C20.5376 23 23 20.5376 23 17.5C23 15.4878 21.9194 13.728 20.3069 12.7692C21.5288 11.8846 22.4307 10.5854 22.8069 9.07818C22.8919 8.73749 22.792 8.37718 22.5437 8.12891C22.2954 7.88064 21.9351 7.78079 21.5944 7.86584C21.2451 7.95305 20.8787 7.9996 20.5 7.9996C18.0147 7.9996 16 5.98488 16 3.4996C16 3.1211 16.0465 2.75487 16.1336 2.40571ZM16.7408 11.9937C18.2027 11.9166 19.4808 11.1414 20.2461 9.99473C16.8584 9.8646 14.1354 7.14184 14.0049 3.75425C12.796 4.56134 12 5.93843 12 7.50005C12 8.07263 12.1065 8.61863 12.3003 9.12058C14.1328 9.4649 15.7127 10.5233 16.7408 11.9937Z" fill="#801ED7"/>
<path d="M6 3C6 2.44772 5.55228 2 5 2C4.44772 2 4 2.44772 4 3V4H3C2.44772 4 2 4.44772 2 5C2 5.55228 2.44772 6 3 6H4V7C4 7.55228 4.44772 8 5 8C5.55228 8 6 7.55228 6 7V6H7C7.55228 6 8 5.55228 8 5C8 4.44772 7.55228 4 7 4H6V3Z" fill="#801ED7"/>
</svg>
